X: 1
T:Lord McDonald's Reel
R:reel
H:See also Dennis Murphy's, #438, Noon Lasses, #738
Z:id:hn-reel-187
M:C|
K:G
DGBG dGBG|cABG AGEG|1 DGBG dGBG|DEDC B,G,G,2:|2 BcBA GAGE|DEGA BG~G2||
|:Bd~d2 dBGA|(3Bcd ef gfed|1 BddB d2ge|dBAc BGGA:|2 (3Bcd ef g2ge|dBAc BG~G2||
|:dgbg agbg|dgbg ageg|1 dgbg agbg|dedc BGGB:|2 bgaf gedB|dega bg~g2||
|:Bd~d2 dBGA|(3Bcd ef gfed|1 BddB d2ge|dBAc BGGA:|2 (3Bcd ef g2ge|dBAc BG~G2||
"variations"
|:DGBG DGBG|c2Bc AGEG|1 DGGF ~G3E|DEDC B,G,G,2:|2 ~B3A ~G3E|DEGA BG~G2||
|:Bdd^c dBGA|(3Bcd eg aged|1 Bdd^c d2ed|BdAc BGGA:|2 (3Bcd ef g2ge|dBAc BG~G2||
|:dgbg agbg|dgbg ageg|1 dgbg agbg|dedc BGGB:|2 ~b3a ~g3e|dega bg~g2||
|:Bdd^c dBGA|(3Bcd eg aged|1 Bdd^c d2ed|BdAc BGGA:|2 (3Bcd ef g2ge|dBAc BG~G2||
